images/whatsapp.svg

<svg width="24" height="24" viewBox="0 0 24 24" fill="none" xmlns="http://www.w3.org/2000/svg">
<path d="M19.0854 4.91005C18.164 3.98398 17.0665 3.24972 15.8569 2.75011C14.6473 2.25049 13.3499 1.99552 12.0402 2.00006C6.55276 2.00006 2.0804 6.45005 2.0804 11.91C2.0804 13.66 2.54271 15.36 3.40704 16.86L2 22L7.27638 20.62C8.73367 21.41 10.3719 21.83 12.0402 21.83C17.5276 21.83 22 17.38 22 11.92C22 9.27004 20.9648 6.78005 19.0854 4.91005ZM12.0402 20.15C10.5528 20.15 9.09548 19.75 7.81909 19L7.51759 18.82L4.38191 19.64L5.21608 16.6L5.01508 16.29C4.18869 14.977 3.74989 13.4593 3.74874 11.91C3.74874 7.37004 7.46734 3.67005 12.0301 3.67005C14.2412 3.67005 16.3216 4.53005 17.8794 6.09005C18.6507 6.85401 19.262 7.7627 19.6778 8.76346C20.0936 9.76422 20.3056 10.8371 20.3015 11.92C20.3216 16.46 16.603 20.15 12.0402 20.15ZM16.5829 13.99C16.3317 13.87 15.1055 13.27 14.8844 13.18C14.6533 13.1 14.4925 13.06 14.3216 13.3C14.1508 13.55 13.6784 14.11 13.5377 14.27C13.397 14.44 13.2462 14.46 12.995 14.33C12.7437 14.21 11.9397 13.94 10.995 13.1C10.2513 12.44 9.75879 11.63 9.60804 11.38C9.46734 11.13 9.58794 11 9.71859 10.87C9.82914 10.76 9.96985 10.58 10.0905 10.44C10.2111 10.3 10.2613 10.19 10.3417 10.03C10.4221 9.86004 10.3819 9.72004 10.3216 9.60004C10.2613 9.48004 9.75879 8.26004 9.55779 7.76004C9.35678 7.28004 9.14573 7.34004 8.99497 7.33004H8.51256C8.34171 7.33004 8.0804 7.39004 7.84925 7.64004C7.62814 7.89004 6.98492 8.49004 6.98492 9.71004C6.98492 10.93 7.8794 12.11 8 12.27C8.1206 12.44 9.75879 14.94 12.2513 16.01C12.8442 16.27 13.3065 16.42 13.6683 16.53C14.2613 16.72 14.804 16.69 15.2362 16.63C15.7186 16.56 16.7136 16.03 16.9146 15.45C17.1256 14.87 17.1256 14.38 17.0553 14.27C16.9849 14.16 16.8342 14.11 16.5829 13.99Z" fill="#3A3BC5"/>
</svg>

<svg width="24" height="24" fill="none" xmlns="http://www.w3.org/2000/svg"><path d="M19.085 4.91a9.868 9.868 0 00-3.228-2.16A9.908 9.908 0 0012.04 2c-5.487 0-9.96 4.45-9.96 9.91a9.9 9.9 0 001.327 4.95L2 22l5.276-1.38c1.458.79 3.096 1.21 4.764 1.21 5.488 0 9.96-4.45 9.96-9.91a9.82 9.82 0 00-2.915-7.01zM12.04 20.15c-1.487 0-2.945-.4-4.22-1.15l-.302-.18-3.136.82.834-3.04-.2-.31a8.233 8.233 0 01-1.267-4.38c0-4.54 3.718-8.24 8.281-8.24 2.211 0 4.292.86 5.85 2.42a8.181 8.181 0 011.798 2.673 8.128 8.128 0 01.623 3.157c.02 4.54-3.698 8.23-8.26 8.23zm4.543-6.16c-.251-.12-1.477-.72-1.699-.81-.23-.08-.392-.12-.562.12-.171.25-.644.81-.784.97-.141.17-.292.19-.543.06-.251-.12-1.055-.39-2-1.23-.744-.66-1.236-1.47-1.387-1.72-.14-.25-.02-.38.11-.51.111-.11.252-.29.373-.43.12-.14.17-.25.25-.41.081-.17.04-.31-.02-.43s-.562-1.34-.763-1.84c-.201-.48-.412-.42-.563-.43h-.482a.906.906 0 00-.664.31c-.22.25-.864.85-.864 2.07 0 1.22.894 2.4 1.015 2.56.12.17 1.759 2.67 4.251 3.74a12.2 12.2 0 001.417.52c.593.19 1.136.16 1.568.1.483-.07 1.478-.6 1.679-1.18.21-.58.21-1.07.14-1.18-.07-.11-.22-.16-.472-.28z" fill="#3A3BC5"/></svg>
